images/payment/payment-1.svg

<svg width="150" height="81" viewBox="0 0 150 81" fill="none" xmlns="http://www.w3.org/2000/svg">
<rect y="0.885742" width="149.581" height="79.1899" rx="23.2911" fill="url(#paint0_linear_1181_25390)"/>
<path d="M45.1966 26.9946C44.1006 28.3 42.3545 29.3345 40.6113 29.183C40.3811 27.4229 41.2497 25.5376 42.2525 24.3691C43.3456 23.0374 45.2578 22.0816 46.8086 22.0029C46.9922 23.8416 46.2722 25.6483 45.1966 26.9946ZM46.7911 29.5297C44.258 29.3753 42.0834 30.9838 40.8824 30.9838C39.6552 30.9838 37.8159 29.6055 35.8133 29.6521C33.216 29.6842 30.7879 31.1674 29.4674 33.5539C26.7185 38.3008 28.7532 45.3293 31.3942 49.199C32.6855 51.1106 34.2305 53.2058 36.268 53.1475C38.1948 53.0688 38.9702 51.8741 41.2935 51.8741C43.6458 51.8741 44.3134 53.1475 46.3655 53.1009C48.473 53.0688 49.8081 51.1893 51.0994 49.2777C52.5715 47.1068 53.1778 44.9796 53.2099 44.8747C53.1778 44.8281 49.126 43.2662 49.0969 38.5601C49.0648 34.6117 52.2829 32.7322 52.4199 32.6244C50.6126 29.894 47.7589 29.6055 46.7882 29.5326L46.7911 29.5297ZM61.4126 24.1855V52.9027H65.8288V43.0855H71.9357C77.5063 43.0855 81.424 39.2158 81.424 33.6297C81.424 28.0319 77.585 24.1884 72.0873 24.1884L61.4126 24.1855ZM65.8288 27.9503H70.9155C74.7399 27.9503 76.9291 30.0134 76.9291 33.6413C76.9291 37.2692 74.7399 39.3498 70.8863 39.3498H65.8288V27.9503ZM89.4664 53.1154C92.2444 53.1154 94.8096 51.7051 95.9814 49.4555H96.0747V52.9027H100.156V38.6038C100.156 34.4776 96.8792 31.7939 91.8217 31.7939C87.1461 31.7939 83.6831 34.5097 83.5636 38.2279H87.5251C87.8603 36.4533 89.4693 35.2994 91.7022 35.2994C94.4044 35.2994 95.9085 36.5728 95.9085 38.9127V40.4892L90.4138 40.8243C85.2805 41.1419 82.5171 43.2516 82.5171 46.9407C82.5171 50.6589 85.3738 53.1183 89.4693 53.1183L89.4664 53.1154ZM90.6674 49.7148C88.3121 49.7148 86.8109 48.5754 86.8109 46.8329C86.8109 45.0262 88.2538 43.9626 90.9997 43.7936L95.9056 43.4906V45.1136C95.9056 47.8032 93.6436 49.7148 90.6499 49.7148H90.6674ZM105.607 60.718C109.9 60.718 111.923 59.0483 113.684 54.0246L121.426 32.0794H116.949L111.757 49.03H111.664L106.472 32.0794H101.858L109.329 52.9785L108.933 54.2519C108.248 56.3936 107.157 57.2241 105.213 57.2241C104.863 57.2241 104.196 57.1804 103.922 57.1513V60.5985C104.178 60.6714 105.274 60.7034 105.592 60.7034L105.607 60.718Z" fill="black"/>
<defs>
<linearGradient id="paint0_linear_1181_25390" x1="74.7904" y1="0.885742" x2="74.7904" y2="80.0756" gradientUnits="userSpaceOnUse">
<stop stop-color="white"/>
<stop offset="1" stop-color="#FFF5EF"/>
</linearGradient>
</defs>
</svg>

<svg width="150" height="81" fill="none" xmlns="http://www.w3.org/2000/svg"><rect y=".886" width="149.581" height="79.19" rx="23.291" fill="url(#paint0_linear_1181_25390)"/><path d="M45.197 26.995c-1.096 1.305-2.843 2.34-4.586 2.188-.23-1.76.639-3.645 1.642-4.814 1.093-1.332 3.005-2.287 4.556-2.366.183 1.839-.537 3.645-1.612 4.992zm1.594 2.535c-2.533-.155-4.708 1.454-5.909 1.454-1.227 0-3.066-1.379-5.069-1.332-2.597.032-5.025 1.515-6.346 3.902-2.748 4.747-.714 11.775 1.927 15.645 1.291 1.912 2.837 4.007 4.874 3.949 1.927-.08 2.702-1.274 5.026-1.274 2.352 0 3.02 1.273 5.072 1.227 2.107-.032 3.442-1.912 4.733-3.823 1.473-2.171 2.079-4.298 2.11-4.403-.031-.047-4.083-1.609-4.112-6.315-.032-3.948 3.186-5.828 3.323-5.936-1.807-2.73-4.661-3.019-5.632-3.091l.003-.003zm14.622-5.345v28.718h4.416v-9.817h6.107c5.57 0 9.488-3.87 9.488-9.456 0-5.598-3.839-9.442-9.337-9.442l-10.674-.002zm4.416 3.765h5.087c3.824 0 6.013 2.063 6.013 5.691 0 3.628-2.19 5.709-6.043 5.709H65.83v-11.4zm23.637 25.165c2.778 0 5.344-1.41 6.515-3.66h.094v3.448h4.081v-14.3c0-4.125-3.277-6.81-8.334-6.81-4.676 0-8.139 2.717-8.258 6.435h3.961c.335-1.775 1.944-2.929 4.177-2.929 2.702 0 4.207 1.274 4.207 3.614v1.576l-5.495.335c-5.133.318-7.897 2.428-7.897 6.117 0 3.718 2.857 6.177 6.952 6.177l-.003-.003zm1.201-3.4c-2.355 0-3.856-1.14-3.856-2.882 0-1.807 1.443-2.87 4.189-3.04l4.906-.302v1.623c0 2.69-2.262 4.6-5.256 4.6h.017zm14.94 11.003c4.293 0 6.316-1.67 8.077-6.693l7.742-21.946h-4.477l-5.192 16.951h-.093l-5.192-16.95h-4.614l7.471 20.898-.396 1.274c-.685 2.142-1.776 2.972-3.72 2.972-.35 0-1.017-.044-1.291-.073v3.447c.256.073 1.352.105 1.67.105l.015.015z" fill="#000"/><defs><linearGradient id="paint0_linear_1181_25390" x1="74.79" y1=".886" x2="74.79" y2="80.076" gradientUnits="userSpaceOnUse"><stop stop-color="#fff"/><stop offset="1" stop-color="#FFF5EF"/></linearGradient></defs></svg>
